X:3169
T: Lådigsvalsen
R: Vals
S: Utlärd av Jonas Hjalmarsson
Z: Karin Arén
M: 3/4
L: 1/8
K: A
e'4 d'2 | c'3 AAc | e3 fed | c3 ABc | d2 Fd Fd | c2 Ec Ec | B2 EB GB | AB cd e2 | 
e'4 d'2 | c'3 AAc | e3 fed | c3 ABc | d2 fb fb | A2 ce ae | B2 eg bg |1 a4 e2 :|2 a3 bag |: 
f2 dd d2 | DF Ad fa | e3 c c2 | EA ce fe | d2 B2 B2 | EG Be fe | c2 A2 A2 | A,C EA ce |
f3 d d2 | DF Ad fa | e3 c c2 | EA ce fe | d2 B2 B2 | EG Be ge |1 a3 bag :|2 a4 z2 |]
(:musicend:)



(:music:)
